ERK
CUT[WIR REISEN DURCH JERUSALEM]
REG[Europa, Mitteleuropa, Deutschland, Schleswig]
TRD[]
FKT[]
SIG[E1868]
KEY[E1868   08  C 2/4]
MEL[1  5566  553
    4  5_6_  5_0
    1  5555  +153
    4  5_5_  1_0 //]
BEM[]
MEL_SEM[7 0 2 0 -2 0 -3 1 2 2 -2 -7 7 0 0 0 5 -5 -3 1 2 0 -7]
MEL_RAW[1  5566  553
    4  56  50
    1  5555  +153
    4  55  10]
NO_REP[15653
    45650
    15+153
    4510]
RTM[x  xxxx  xxx
    x  x_x_  x_x
    x  xxxx  xxx
    x  x_x_  x_x]
SCL_DEG[13456+1]
SCL_SEM[4 1 2 2 3]

